X: 5553
T: Burren, The
R: reel
M: 4/4
K: Dmajor
|:B|ABdB AF ~F2|AFAB ~f3 a|afef dB ~B2|dBAF E2 ED|
ABdB AF ~F2|AFAB ~f3 a|afef dB ~B2|A2 fe ~d3:|
|:e|f2 ed BAFB|ABdf a2 fa|g2 fg edBc|dBAF E2 ED|
ABdB AF ~F2|AFAB ~f3 a|afef dB ~B2|A2 fe ~d3:|

